public/images/twitch-icon.svg

<svg fill="none" height="800" viewBox="0 0 16 16" width="800" xmlns="http://www.w3.org/2000/svg"><path d="m4.5 1-2.5 2.5v9h3v2.5l2.5-2.5h2l4.5-4.5v-7zm8.5 6.5-2 2h-2l-1.75 1.75v-1.75h-2.25v-7.5h8z"/><path d="m11.5 3.75h-1v3h1zm-2.75 0h-1v3h1z"/></svg>

<?xml version="1.0" encoding="utf-8"?>

<!-- Uploaded to: SVG Repo, www.svgrepo.com, Generator: SVG Repo Mixer Tools -->
<svg width="800px" height="800px" viewBox="0 0 16 16" xmlns="http://www.w3.org/2000/svg" fill="none">

<g>

<path d="M4.5 1L2 3.5v9h3V15l2.5-2.5h2L14 8V1H4.5zM13 7.5l-2 2H9l-1.75 1.75V9.5H5V2h8v5.5z"/>

<path d="M11.5 3.75h-1v3h1v-3zM8.75 3.75h-1v3h1v-3z"/>

</g>

</svg>
